Sources/FrostedUI/Resources/Icons.xcassets/checkmarkCircleFilled32.imageset/checkmark-circle-filled-32.svg

<svg width="32" height="32" viewBox="0 0 32 32" fill="none" xmlns="http://www.w3.org/2000/svg" data-fui-icon="true">
  <path
    d="M16 1C24.2843 1 31 7.71573 31 16C31 24.2843 24.2843 31 16 31C7.71573 31 1 24.2843 1 16C1 7.71573 7.71573 1 16 1ZM22.5225 11.4619C22.2252 11.1737 21.7503 11.1805 21.4619 11.4775L14.0068 19.165L10.5459 15.4863C10.262 15.1847 9.78796 15.1703 9.48633 15.4541C9.18472 15.738 9.17027 16.212 9.4541 16.5137L13.4541 20.7637L13.5088 20.8174C13.6429 20.9335 13.815 20.9986 13.9941 21C14.1988 21.0015 14.3955 20.9193 14.5381 20.7725L22.5381 12.5225C22.8263 12.2252 22.8195 11.7503 22.5225 11.4619Z"
    fill="currentColor"
  />
</svg>

<svg xmlns="http://www.w3.org/2000/svg" width="32" height="32" fill="none" data-fui-icon="true" viewBox="0 0 32 32"><path fill="currentColor" d="M16 1c8.284 0 15 6.716 15 15s-6.716 15-15 15S1 24.284 1 16 7.716 1 16 1m6.523 10.462a.75.75 0 0 0-1.061.015l-7.455 7.688-3.461-3.679a.75.75 0 1 0-1.092 1.028l4 4.25.055.053a.75.75 0 0 0 1.03-.044l8-8.25a.75.75 0 0 0-.017-1.061"/></svg>
